gama.ui.shared/icons_svg/light/views/views.menu.svg

<svg height="25" viewBox="-192.5 -3370.5 25 25" width="25" xmlns="http://www.w3.org/2000/svg"><g fill="none"><path d="m-188.15998-3370h16.32c2.12077 0 3.84 1.7192 3.84 3.84v16.32c0 2.1208-1.71923 3.84-3.84 3.84h-16.32c-2.12078 0-3.84-1.7192-3.84-3.84v-16.32c0-2.1208 1.71922-3.84 3.84-3.84z" fill="#fff"/><path d="m-188.15998-3370h16.32c2.12077 0 3.84 1.7192 3.84 3.84v16.32c0 2.1208-1.71923 3.84-3.84 3.84h-16.32c-2.12078 0-3.84-1.7192-3.84-3.84v-16.32c0-2.1208 1.71922-3.84 3.84-3.84z" stroke="#000" stroke-linecap="round" stroke-linejoin="round" stroke-width=".25"/><path d="m-172-3352.221c0 1.226-.995 2.221-2.22099 2.221h-11.55802c-1.22599 0-2.22099-.995-2.22099-2.221v-11.558c0-1.226.995-2.221 2.22099-2.221h11.55802c1.22599 0 2.22099.995 2.22099 2.221zm-.8884-10.2254v-1.3326c0-.7374-.59522-1.3326-1.33259-1.3326h-11.55802c-.73737 0-1.33259.5952-1.33259 1.3326v1.3326zm0 .8884h-14.2232v9.337c0 .7374.59522 1.3326 1.33259 1.3326h11.55802c.73737 0 1.33259-.5952 1.33259-1.3326zm-13.3348-2.6652h.88839v.8882h-.88839zm1.77678 0h.8884v.8882h-.8884zm1.77679 0h.8884v.8882h-.8884z" fill="#66727e"/></g></svg>

<?xml version="1.0" encoding="UTF-8" standalone="no"?>
<!DOCTYPE svg PUBLIC "-//W3C//DTD SVG 1.1//EN" "http://www.w3.org/Graphics/SVG/1.1/DTD/svg11.dtd">
<svg version="1.1" xmlns="http://www.w3.org/2000/svg" xmlns:xl="http://www.w3.org/1999/xlink" xmlns:dc="http://purl.org/dc/elements/1.1/" viewBox="-192.49998 -3370.5 25 25" width="25" height="25">
  <defs/>
  <g id="SOURCES" stroke-dasharray="none" fill="none" stroke="none" fill-opacity="1" stroke-opacity="1">
    <title>SOURCES</title>
    <g id="SOURCES_Calque_2">
      <title>Calque 2</title>
      <g id="Group_9641">
        <g id="Graphic_8161">
          <title>views/view.other</title>
          <path d="M -188.15998 -3370 L -171.83998 -3370 C -169.71921 -3370 -167.99998 -3368.2808 -167.99998 -3366.16 L -167.99998 -3349.84 C -167.99998 -3347.7192 -169.71921 -3346 -171.83998 -3346 L -188.15998 -3346 C -190.28076 -3346 -191.99998 -3347.7192 -191.99998 -3349.84 L -191.99998 -3366.16 C -191.99998 -3368.2808 -190.28076 -3370 -188.15998 -3370 Z" fill="white"/>
          <path d="M -188.15998 -3370 L -171.83998 -3370 C -169.71921 -3370 -167.99998 -3368.2808 -167.99998 -3366.16 L -167.99998 -3349.84 C -167.99998 -3347.7192 -169.71921 -3346 -171.83998 -3346 L -188.15998 -3346 C -190.28076 -3346 -191.99998 -3347.7192 -191.99998 -3349.84 L -191.99998 -3366.16 C -191.99998 -3368.2808 -190.28076 -3370 -188.15998 -3370 Z" stroke="black" stroke-linecap="round" stroke-linejoin="round" stroke-width=".25"/>
        </g>
        <g id="Group_9639">
          <title>window</title>
          <g id="Graphic_9640">
            <path d="M -172 -3352.221 C -172 -3350.995 -172.995 -3350 -174.22099 -3350 L -185.77901 -3350 C -187.005 -3350 -188 -3350.995 -188 -3352.221 L -188 -3363.779 C -188 -3365.005 -187.005 -3366 -185.77901 -3366 L -174.22099 -3366 C -172.995 -3366 -172 -3365.005 -172 -3363.779 L -172 -3352.221 Z M -172.8884 -3362.4464 L -172.8884 -3363.779 C -172.8884 -3364.5164 -173.48362 -3365.1116 -174.22099 -3365.1116 L -185.77901 -3365.1116 C -186.51638 -3365.1116 -187.1116 -3364.5164 -187.1116 -3363.779 L -187.1116 -3362.4464 Z M -172.8884 -3361.558 L -187.1116 -3361.558 L -187.1116 -3352.221 C -187.1116 -3351.4836 -186.51638 -3350.8884 -185.77901 -3350.8884 L -174.22099 -3350.8884 C -173.48362 -3350.8884 -172.8884 -3351.4836 -172.8884 -3352.221 Z M -186.2232 -3364.2232 L -185.33481 -3364.2232 L -185.33481 -3363.335 L -186.2232 -3363.335 Z M -184.44642 -3364.2232 L -183.55802 -3364.2232 L -183.55802 -3363.335 L -184.44642 -3363.335 Z M -182.66963 -3364.2232 L -181.78123 -3364.2232 L -181.78123 -3363.335 L -182.66963 -3363.335 Z" fill="#66727e"/>
          </g>
        </g>
      </g>
    </g>
  </g>
</svg>
